icon-themes/sifr_svg/cmd/sc_beforeobject.svg

<svg viewBox="0 0 16 16" xmlns="http://www.w3.org/2000/svg"><g fill="#555753"><path d="m4 1-3 3h11l3-3zm4 4-3 2h2v3h2v-3h2zm-8 4v1h1v-1zm2 0v1h1v-1zm2 0v1h1v-1zm7 0v1h1v-1zm2 0v1h1v-1zm2 0v1h1v-1zm-15 2v1h1v-1zm15 0v1h1v-1zm-15 2v1h1v-1zm15 0v1h1v-1zm-15 2v1h1v-1zm2 0v1h1v-1zm2 0v1h1v-1zm2 0v1h1v-1zm3 0v1h1v-1zm2 0v1h1v-1zm2 0v1h1v-1zm2 0v1h1v-1z"/><path d="m4 11-2 3h10l2-3z" opacity=".35"/></g></svg>

<svg xmlns="http://www.w3.org/2000/svg" viewBox="0 0 16 16">
  <path
     style="fill:#555753"
     d="M 4,1 1,4 H 12 L 15,1 Z M 8,5 5,7 h 2 v 3 H 9 V 7 h 2 z M 0,9 v 1 H 1 V 9 Z m 2,0 v 1 H 3 V 9 Z m 2,0 v 1 H 5 V 9 Z m 7,0 v 1 h 1 V 9 Z m 2,0 v 1 h 1 V 9 Z m 2,0 v 1 h 1 V 9 Z M 0,11 v 1 h 1 v -1 z m 15,0 v 1 h 1 V 11 Z M 0,13 v 1 h 1 v -1 z m 15,0 v 1 h 1 V 13 Z M 0,15 v 1 h 1 v -1 z m 2,0 v 1 h 1 v -1 z m 2,0 v 1 h 1 v -1 z m 2,0 v 1 h 1 v -1 z m 3,0 v 1 h 1 v -1 z m 2,0 v 1 h 1 v -1 z m 2,0 v 1 h 1 v -1 z m 2,0 v 1 h 1 v -1 z"
     />
  <path
     style="opacity:0.35;fill:#555753"
     d="m 4,11 -2,3 h 10 l 2,-3 z"
     />
</svg>
